modules/coreui-icons-free/icons/grid.svg

<!-- Generated by IcoMoon.io -->
<svg version="1.1" xmlns="http://www.w3.org/2000/svg" width="24" height="24" viewBox="0 0 24 24">
<title>grid</title>
<path d="M21.021 2.229h-18.042c-0.414 0-0.75 0.336-0.75 0.75v0 18.042c0 0.414 0.336 0.75 0.75 0.75v0h18.042c0.414 0 0.75-0.336 0.75-0.75v0-18.042c0-0.414-0.336-0.75-0.75-0.75v0zM20.271 8.243h-4.514v-4.514h4.514zM9.743 14.257v-4.514h4.514v4.514zM14.257 15.757v4.514h-4.514v-4.514zM8.243 14.257h-4.514v-4.514h4.514zM9.743 8.243v-4.514h4.514v4.514zM15.757 9.743h4.514v4.514h-4.514zM8.243 3.729v4.514h-4.514v-4.514zM3.729 15.757h4.514v4.514h-4.514zM15.757 20.271v-4.514h4.514v4.514z"></path>
</svg>

<svg xmlns="http://www.w3.org/2000/svg" width="24" height="24" viewBox="0 0 24 24"><path d="M21.021 2.229H2.979a.75.75 0 00-.75.75v18.042c0 .414.336.75.75.75h18.042a.75.75 0 00.75-.75V2.979a.75.75 0 00-.75-.75zm-.75 6.014h-4.514V3.729h4.514zM9.743 14.257V9.743h4.514v4.514zm4.514 1.5v4.514H9.743v-4.514zm-6.014-1.5H3.729V9.743h4.514zm1.5-6.014V3.729h4.514v4.514zm6.014 1.5h4.514v4.514h-4.514zM8.243 3.729v4.514H3.729V3.729zM3.729 15.757h4.514v4.514H3.729zm12.028 4.514v-4.514h4.514v4.514z"/></svg>
